X:1
T:Title
%%score { ( 1 3 ) | ( 2 4 ) }
L:1/8
Q:1/4=100
M:6/4
K:Bb
V:1 treble nm="Grand Piano"
V:3 treble 
V:2 bass 
V:4 bass 
V:1
 [DF]3 [_D=E] [=DF]2 [_EG]2 [DF]2 [DF]2 | [DB]3 [FA] [EG]2 [DF]6 | c3 =B c2 [Ed]2 [DB]2 [DG]2 | %3
w: H.~L.~Gilmour * * * * *|||
[M:13/8] z z z z z2 F-F-F-F- F2- F/ z/ |[M:6/4] [DF]3 [_D=E] [=DF]2 [_EG]2 [DF]2 [DF]2 | %5
w: ||
 [FB]2 [FB]2 [FA]2 G6 | A3 B c2 F3 B [DFB]2 | [CEA]2 [B,EG]2 [A,EF]2 [B,DB]6 | %8
w: |||
 [^Fd]3 [Fd] [Fd]2 [Fd]2 [FA]2 [FA]2 | [^Fc]2 [GB]2 [EG]2 [D=F]6 | [Ae]3 [Ae] [Ae]2 [Ae]2 c4 | %11
w: |||
 B2 A2 B2 c6 | [Fd]3 [=E_d] [F=d]2 [DB]2 [DF]4 | [FB]2 [FB]2 [FA]2 G6 | F3 B d2 d3 c B2 | %15
w: ||||
 c6 [DB]6 |] %16
w: |
V:2
 [B,,B,]3 [B,,B,] [B,,B,]2 [B,,B,]2 [B,,B,]2 [B,,B,]2 | [B,,F,]3 [B,,F,] [B,,B,]2 [B,,B,]6 | %2
 [F,A,E]3 [F,_A,D] [F,=A,E]2 [B,,B,]2 [B,,F,]2 [B,,B,]2 | %3
[M:13/8] [C,A,C]2 [C,G,C]2 [C,B,C]2 [A,C]2 B,2 C3 | %4
[M:6/4] [B,,B,]3 [B,,B,] [B,,B,]2 [B,,B,]2 [B,,B,]2 [B,,B,]2 | [D,B,]2 [D,B,]2 [D,B,]2 [E,B,E]6 | %6
 [F,C]3 [F,B,D] [F,A,E]2 [B,D]3 [B,D] B,,2 | F,2 F,2 F,2 B,,6 | %8
 [D,A,]3 [D,A,] [D,A,]2 [D,A,]2 [D,D]2 [D,D]2 | [E,A,]2 [E,B,]2 [E,B,]2 [B,,B,]6 | %10
 [F,C]3 [F,C] [F,C]2 [F,C]2 [F,A,F]4 | [G,B,D]2 [G,C=E]2 [G,B,E]2 [F,A,F]6 | %12
 [B,,B,]3 [B,,B,] [B,,B,]2 [B,,F,]2 [B,,B,]4 | [D,B,]2 [D,B,]2 [D,B,]2 [E,B,E]6 | %14
 [F,B,D]3 [F,B,D] [F,B,F]2 [F,B,F]3 [F,B,E] [F,B,D]2 | [F,A,E]6 [B,,B,]6 |] %16
V:3
 x12 | x12 | x12 |[M:13/8] F2 =E2 G2 z2 D2 E3 |[M:6/4] x12 | x12 | x12 | x12 | x12 | x12 | x12 | %11
 x12 | x12 | x12 | x12 | x12 |] %16
V:4
 x12 | x12 | x12 |[M:13/8] z z z z z2 F,-F,-F,-F,- F,3 |[M:6/4] x12 | x12 | x12 | x12 | x12 | x12 | %10
 x12 | x12 | x12 | x12 | x12 | x12 |] %16

